;Generated with Cura_SteamEngine 13.11.2
M109 T0 S220.000000
T0
;Sliced at: Thu 21-11-2013 06:43:57
;Basic settings: Layer height: 0.1 Walls: 1 Fill: 20
;Print time: #P_TIME#
;Filament used: #F_AMNT#m #F_WGHT#g
;Filament cost: #F_COST#
;M190 S70 ;Uncomment to add your own bed temperature line
;M109 S220 ;Uncomment to add your own temperature line
G21        ;metric values
G90        ;absolute positioning
M107       ;start with the fan off

G28 X0 Y0  ;move X/Y to min endstops
G28 Z0     ;move Z to min endstops

G1 Z15.0 F9000 ;move the platform down 15mm

G92 E0                  ;zero the extruded length
G1 F200 E3              ;extrude 3mm of feed stock
G92 E0                  ;zero the extruded length again
G1 F9000
;Put printing message on LCD screen
M117 Printing...

;Layer count: 168
;LAYER:0
M107
G0 F3600 X32.81 Y33.87 Z0.30
;TYPE:SKIRT
G1 F2400 E0.00000
G1 F1200 X33.13 Y33.55 E0.01061
G1 X33.60 Y33.19 E0.02451
G1 X33.95 Y32.97 E0.03416
G1 X34.46 Y32.72 E0.04773
G1 X34.86 Y32.56 E0.05777
G1 X35.40 Y32.42 E0.07091
G1 X35.79 Y32.35 E0.08006
G1 X36.23 Y32.32 E0.09053
G1 X36.40 Y32.31 E0.09460
G1 X37.47 Y32.31 E0.11959
G1 X37.54 Y32.31 E0.12143
G1 X37.84 Y32.31 E0.12846
G1 X37.91 Y32.31 E0.13006
G1 X38.21 Y32.31 E0.13709
G1 X38.28 Y32.31 E0.13869
G1 X38.58 Y32.31 E0.14570
G1 X38.64 Y32.31 E0.14730
G1 X39.02 Y32.31 E0.15616
G1 X39.58 Y32.31 E0.16933
G1 X39.60 Y32.31 E0.16970
G1 X39.93 Y32.31 E0.17749
G1 X40.01 Y32.32 E0.17940
G1 X40.14 Y32.31 E0.18239
G1 X40.28 Y32.31 E0.18568
G1 X40.44 Y32.31 E0.18947
G1 X40.45 Y32.31 E0.18968
G1 X40.48 Y32.31 E0.19048
G1 X42.78 Y32.31 E0.24465
G1 X42.92 Y32.31 E0.24785
G1 X42.95 Y32.31 E0.24849
G1 X43.17 Y32.31 E0.25375
G1 X43.20 Y32.31 E0.25453
G1 X43.26 Y32.31 E0.25573
G1 X43.38 Y32.31 E0.25872
G1 X43.65 Y32.31 E0.26502
G1 X43.90 Y32.33 E0.27083
G1 X44.38 Y32.38 E0.28231
G1 X44.78 Y32.46 E0.29183
G1 X45.32 Y32.63 E0.30510
G1 X45.70 Y32.79 E0.31487
G1 X46.21 Y33.06 E0.32837
G1 X46.56 Y33.31 E0.33862
G1 X47.03 Y33.71 E0.35302
G1 X47.35 Y34.03 E0.36363
G1 X47.71 Y34.50 E0.37753
G1 X47.92 Y34.85 E0.38719
G1 X48.18 Y35.36 E0.40075
G1 X48.33 Y35.76 E0.41079
G1 X48.48 Y36.31 E0.42403
G1 X48.55 Y36.70 E0.43344
G1 X48.58 Y37.17 E0.44440
G1 X48.59 Y37.35 E0.44875
G1 X48.59 Y37.55 E0.45343
G1 X48.59 Y37.61 E0.45482
G1 X48.59 Y41.83 E0.55419
G1 X48.59 Y41.96 E0.55701
G1 X48.59 Y41.98 E0.55755
G1 X48.59 Y42.18 E0.56232
G1 X48.59 Y42.27 E0.56451
G1 X48.59 Y42.32 E0.56559
G1 X48.59 Y42.48 E0.56930
G1 X48.59 Y42.75 E0.57577
G1 X48.57 Y43.00 E0.58161
G1 X48.52 Y43.49 E0.59306
G1 X48.44 Y43.88 E0.60251
G1 X48.27 Y44.42 E0.61577
G1 X48.11 Y44.80 E0.62555
G1 X47.83 Y45.31 E0.63905
G1 X47.59 Y45.67 E0.64930
G1 X47.19 Y46.13 E0.66370
G1 X46.87 Y46.44 E0.67431
G1 X46.40 Y46.81 E0.68821
G1 X46.05 Y47.02 E0.69787
G1 X45.53 Y47.28 E0.71143
G1 X45.14 Y47.43 E0.72147
G1 X44.59 Y47.58 E0.73469
G1 X44.20 Y47.65 E0.74402
G1 X43.74 Y47.68 E0.75494
G1 X43.55 Y47.69 E0.75946
G1 X43.34 Y47.69 E0.76435
G1 X43.32 Y47.69 E0.76484
G1 X41.01 Y47.69 E0.81899
G1 X40.88 Y47.69 E0.82221
G1 X40.85 Y47.69 E0.82285
G1 X40.60 Y47.69 E0.82880
G1 X40.59 Y47.69 E0.82889
G1 X40.54 Y47.69 E0.83009
G1 X40.42 Y47.69 E0.83310
G1 X40.10 Y47.69 E0.84041
G1 X39.99 Y47.68 E0.84303
G1 X39.89 Y47.69 E0.84541
G1 X39.77 Y47.69 E0.84826
G1 X38.69 Y47.69 E0.87356
G1 X38.65 Y47.69 E0.87450
G1 X38.33 Y47.69 E0.88221
G1 X38.29 Y47.69 E0.88310
G1 X37.96 Y47.69 E0.89084
G1 X37.92 Y47.69 E0.89173
G1 X37.59 Y47.69 E0.89947
G1 X37.56 Y47.69 E0.90036
G1 X37.18 Y47.69 E0.90918
G1 X36.57 Y47.69 E0.92357
G1 X36.45 Y47.68 E0.92639
G1 X35.80 Y47.65 E0.94175
G1 X35.28 Y47.55 E0.95410
G1 X34.68 Y47.37 E0.96880
G1 X34.30 Y47.21 E0.97858
G1 X33.79 Y46.93 E0.99207
G1 X33.43 Y46.69 E1.00233
G1 X32.97 Y46.29 E1.01673
G1 X32.65 Y45.97 E1.02734
G1 X32.29 Y45.50 E1.04123
G1 X32.08 Y45.15 E1.05089
G1 X31.82 Y44.63 E1.06445
G1 X31.67 Y44.24 E1.07449
G1 X31.52 Y43.69 E1.08766
G1 X31.45 Y43.31 E1.09690
G1 X31.42 Y42.86 E1.10742
G1 X31.41 Y42.69 E1.11142
G1 X31.41 Y41.50 E1.13954
G1 X31.41 Y41.42 E1.14121
G1 X31.41 Y41.08 E1.14927
G1 X31.41 Y41.02 E1.15078
G1 X31.41 Y40.67 E1.15887
G1 X31.41 Y40.61 E1.16037
G1 X31.41 Y40.27 E1.16846
G1 X31.41 Y40.20 E1.16997
G1 X31.41 Y39.86 E1.17801
G1 X31.41 Y39.80 E1.17952
G1 X31.41 Y39.45 E1.18760
G1 X31.41 Y39.39 E1.18911
G1 X31.41 Y39.04 E1.19720
G1 X31.41 Y38.98 E1.19870
G1 X31.41 Y38.64 E1.20677
G1 X31.41 Y38.57 E1.20828
G1 X31.41 Y38.15 E1.21810
G1 X31.41 Y37.23 E1.23976
G1 X31.43 Y36.99 E1.24541
G1 X31.48 Y36.51 E1.25677
G1 X31.56 Y36.12 E1.26621
G1 X31.73 Y35.58 E1.27948
G1 X31.89 Y35.20 E1.28926
G1 X32.17 Y34.69 E1.30276
G1 X32.41 Y34.33 E1.31301
G1 X32.81 Y33.87 E1.32741
G0 F3600 X33.17 Y34.21
G1 F1200 X33.46 Y33.93 E1.33677
G1 X33.89 Y33.60 E1.34948
G1 X34.19 Y33.41 E1.35803
G1 X34.67 Y33.17 E1.37041
G1 X35.02 Y33.04 E1.37927
G1 X35.51 Y32.91 E1.39127
G1 X35.85 Y32.85 E1.39936
G1 X36.26 Y32.82 E1.40906
G1 X36.41 Y32.81 E1.41263
G1 X37.48 Y32.81 E1.43770
G1 X37.55 Y32.81 E1.43934
G1 X37.85 Y32.81 E1.44649
G1 X37.92 Y32.81 E1.44798
G1 X38.22 Y32.81 E1.45512
G1 X38.28 Y32.81 E1.45661
G1 X38.59 Y32.81 E1.46375
G1 X38.65 Y32.81 E1.46521
G1 X39.02 Y32.81 E1.47398
G1 X39.58 Y32.81 E1.48715
G1 X39.60 Y32.81 E1.48748
G1 X39.91 Y32.81 E1.49482
G1 X40.00 Y32.82 E1.49699
G1 X40.15 Y32.81 E1.50061
G1 X40.28 Y32.81 E1.50355
G1 X40.41 Y32.81 E1.50673
G1 X40.45 Y32.81 E1.50762
G1 X40.48 Y32.81 E1.50835
G1 X42.79 Y32.81 E1.56257
G1 X42.92 Y32.81 E1.56574
G1 X42.95 Y32.81 E1.56628
G1 X43.14 Y32.81 E1.57089
G1 X43.21 Y32.81 E1.57245
G1 X43.25 Y32.81 E1.57353
G1 X43.38 Y32.81 E1.57649
G1 X43.64 Y32.81 E1.58256
G1 X43.86 Y32.82 E1.58771
G1 X44.30 Y32.87 E1.59829
G1 X44.65 Y32.95 E1.60665
G1 X45.15 Y33.10 E1.61881
G1 X45.48 Y33.24 E1.62741
G1 X45.94 Y33.49 E1.63976
G1 X46.26 Y33.71 E1.64880
G1 X46.69 Y34.07 E1.66196
G1 X46.97 Y34.36 E1.67132
G1 X47.29 Y34.79 E1.68403
G1 X47.49 Y35.09 E1.69258
G1 X47.72 Y35.56 E1.70496
G1 X47.86 Y35.92 E1.71382
G1 X47.99 Y36.42 E1.72594
G1 X48.05 Y36.76 E1.73422
G1 X48.08 Y37.19 E1.74436
G1 X48.09 Y37.36 E1.74822
G1 X48.09 Y37.55 E1.75280
G1 X48.09 Y37.61 E1.75421
G1 X48.09 Y41.83 E1.85353
G1 X48.09 Y41.96 E1.85640
G1 X48.09 Y41.98 E1.85687
G1 X48.09 Y42.19 E1.86183
G1 X48.09 Y42.28 E1.86395
G1 X48.09 Y42.32 E1.86491
G1 X48.09 Y42.47 E1.86856
G1 X48.09 Y42.74 E1.87483
G1 X48.08 Y42.96 E1.87999
G1 X48.03 Y43.40 E1.89052
G1 X47.95 Y43.75 E1.89888
G1 X47.80 Y44.25 E1.91102
G1 X47.66 Y44.58 E1.91962
G1 X47.41 Y45.04 E1.93197
G1 X47.19 Y45.36 E1.94100
G1 X46.83 Y45.79 E1.95416
G1 X46.54 Y46.06 E1.96353
G1 X46.11 Y46.40 E1.97623
G1 X45.81 Y46.59 E1.98478
G1 X45.33 Y46.82 E1.99717
G1 X44.98 Y46.96 E2.00602
G1 X44.49 Y47.09 E2.01810
G1 X44.14 Y47.15 E2.02633
G1 X43.71 Y47.18 E2.03645
G1 X43.54 Y47.19 E2.04042
G1 X43.37 Y47.19 E2.04451
G1 X43.32 Y47.19 E2.04576
G1 X41.01 Y47.19 E2.09996
G1 X40.88 Y47.19 E2.10316
G1 X40.85 Y47.19 E2.10370
G1 X40.66 Y47.19 E2.10828
G1 X40.59 Y47.19 E2.10986
G1 X40.54 Y47.19 E2.11094
G1 X40.42 Y47.19 E2.11392
G1 X40.12 Y47.19 E2.12088
G1 X39.99 Y47.18 E2.12409
G1 X39.87 Y47.18 E2.12677
G1 X39.76 Y47.19 E2.12927
G1 X38.69 Y47.19 E2.15462
G1 X38.65 Y47.19 E2.15546
G1 X38.32 Y47.19 E2.16327
G1 X38.28 Y47.19 E2.16407
G1 X37.95 Y47.19 E2.17190
G1 X37.92 Y47.19 E2.17270
G1 X37.58 Y47.19 E2.18053
G1 X37.55 Y47.19 E2.18133
G1 X37.18 Y47.19 E2.19005
G1 X36.57 Y47.19 E2.20430
G1 X36.47 Y47.18 E2.20679
G1 X35.85 Y47.15 E2.22125
G1 X35.40 Y47.07 E2.23215
G1 X34.85 Y46.90 E2.24556
G1 X34.52 Y46.76 E2.25416
G1 X34.05 Y46.51 E2.26651
G1 X33.74 Y46.29 E2.27555
G1 X33.31 Y45.93 E2.28871
G1 X33.03 Y45.64 E2.29807
G1 X32.70 Y45.21 E2.31078
G1 X32.51 Y44.90 E2.31933
G1 X32.28 Y44.43 E2.33171
G1 X32.14 Y44.08 E2.34057
G1 X32.01 Y43.59 E2.35261
G1 X31.95 Y43.25 E2.36076
G1 X31.92 Y42.83 E2.37050
G1 X31.91 Y42.68 E2.37403
G1 X31.91 Y41.51 E2.40165
G1 X31.91 Y41.49 E2.40205
G1 X31.91 Y41.42 E2.40370
G1 X31.91 Y41.10 E2.41134
G1 X31.91 Y41.08 E2.41162
G1 X31.91 Y41.01 E2.41327
G1 X31.91 Y40.69 E2.42094
G1 X31.91 Y40.68 E2.42122
G1 X31.91 Y40.61 E2.42287
G1 X31.91 Y40.28 E2.43053
G1 X31.91 Y40.27 E2.43081
G1 X31.91 Y40.20 E2.43246
G1 X31.91 Y39.87 E2.44008
G1 X31.91 Y39.86 E2.44036
G1 X31.91 Y39.79 E2.44201
G1 X31.91 Y39.47 E2.44967
G1 X31.91 Y39.45 E2.44996
G1 X31.91 Y39.38 E2.45160
G1 X31.91 Y39.06 E2.45927
G1 X31.91 Y39.05 E2.45955
G1 X31.91 Y38.98 E2.46120
G1 X31.91 Y38.65 E2.46884
G1 X31.91 Y38.64 E2.46912
G1 X31.91 Y38.57 E2.47077
G1 X31.91 Y38.16 E2.48048
G1 X31.91 Y37.25 E2.50183
G1 X31.92 Y37.04 E2.50682
G1 X31.97 Y36.59 E2.51728
G1 X32.05 Y36.25 E2.52564
G1 X32.20 Y35.75 E2.53778
G1 X32.34 Y35.42 E2.54638
G1 X32.59 Y34.95 E2.55873
G1 X32.81 Y34.64 E2.56776
G1 X33.17 Y34.21 E2.58092
G0 F3600 X33.54 Y34.55
G1 F1200 X33.78 Y34.31 E2.58902
G1 X34.17 Y34.01 E2.60056
G1 X34.44 Y33.85 E2.60796
G1 X34.87 Y33.63 E2.61919
G1 X35.17 Y33.52 E2.62685
G1 X35.62 Y33.40 E2.63771
G1 X35.91 Y33.35 E2.64473
G1 X36.29 Y33.32 E2.65363
G1 X36.42 Y33.31 E2.65673
G1 X37.47 Y33.31 E2.68138
G1 X37.48 Y33.31 E2.68173
G1 X37.55 Y33.31 E2.68333
G1 X37.84 Y33.31 E2.69010
G1 X37.85 Y33.31 E2.69036
G1 X37.92 Y33.31 E2.69196
G1 X38.21 Y33.31 E2.69873
G1 X38.22 Y33.31 E2.69899
G1 X38.29 Y33.31 E2.70059
G1 X38.57 Y33.31 E2.70734
G1 X38.58 Y33.31 E2.70760
G1 X38.65 Y33.31 E2.70920
G1 X39.02 Y33.31 E2.71787
G1 X39.58 Y33.31 E2.73104
G1 X39.59 Y33.31 E2.73132
G1 X39.89 Y33.31 E2.73821
G1 X39.99 Y33.32 E2.74062
G1 X40.17 Y33.31 E2.74493
G1 X40.28 Y33.31 E2.74747
G1 X40.42 Y33.31 E2.75069
G1 X40.46 Y33.31 E2.75165
G1 X40.48 Y33.31 E2.75226
G1 X42.79 Y33.31 E2.80653
G1 X42.92 Y33.31 E2.80968
G1 X42.94 Y33.31 E2.81015
G1 X43.15 Y33.31 E2.81490
G1 X43.21 Y33.31 E2.81646
G1 X43.25 Y33.31 E2.81740
G1 X43.38 Y33.31 E2.82034
G1 X43.62 Y33.31 E2.82614
G1 X43.81 Y33.32 E2.83062
G1 X44.22 Y33.37 E2.84029
G1 X44.53 Y33.43 E2.84757
G1 X44.97 Y33.57 E2.85858
G1 X45.27 Y33.69 E2.86606
G1 X45.68 Y33.92 E2.87721
G1 X45.96 Y34.11 E2.88504
G1 X46.35 Y34.44 E2.89699
G1 X46.58 Y34.69 E2.90509
G1 X46.88 Y35.07 E2.91662
G1 X47.05 Y35.34 E2.92403
G1 X47.27 Y35.77 E2.93526
G1 X47.38 Y36.07 E2.94292
G1 X47.50 Y36.52 E2.95388
G1 X47.55 Y36.82 E2.96104
G1 X47.58 Y37.22 E2.97038
G1 X47.59 Y37.36 E2.97374
G1 X47.59 Y37.54 E2.97802
G1 X47.59 Y37.59 E2.97910
G1 X47.59 Y37.61 E2.97967
G1 X47.59 Y41.83 E3.07894
G1 X47.59 Y41.96 E3.08185
G1 X47.59 Y41.98 E3.08228
G1 X47.59 Y42.20 E3.08743
G1 X47.59 Y42.28 E3.08947
G1 X47.59 Y42.32 E3.09029
G1 X47.59 Y42.47 E3.09387
G1 X47.59 Y42.73 E3.09996
G1 X47.58 Y42.92 E3.10441
G1 X47.53 Y43.33 E3.11404
G1 X47.47 Y43.63 E3.12132
G1 X47.33 Y44.07 E3.13230
G1 X47.21 Y44.37 E3.13978
G1 X46.98 Y44.78 E3.15093
G1 X46.79 Y45.06 E3.15877
G1 X46.46 Y45.45 E3.17071
G1 X46.21 Y45.69 E3.17881
G1 X45.83 Y45.99 E3.19034
G1 X45.56 Y46.15 E3.19775
G1 X45.13 Y46.37 E3.20898
G1 X44.83 Y46.48 E3.21664
G1 X44.38 Y46.60 E3.22758
G1 X44.08 Y46.65 E3.23469
G1 X43.69 Y46.68 E3.24401
G1 X43.54 Y46.69 E3.24744
G1 X43.37 Y46.69 E3.25146
G1 X43.31 Y46.69 E3.25271
G1 X41.01 Y46.69 E3.30695
G1 X40.87 Y46.69 E3.31013
G1 X40.85 Y46.69 E3.31060
G1 X40.65 Y46.69 E3.31532
G1 X40.58 Y46.69 E3.31690
G1 X40.54 Y46.69 E3.31784
G1 X40.42 Y46.69 E3.32078
G1 X40.14 Y46.69 E3.32743
G1 X39.99 Y46.68 E3.33080
G1 X39.85 Y46.69 E3.33417
G1 X39.76 Y46.69 E3.33634
G1 X38.71 Y46.69 E3.36107
G1 X38.65 Y46.69 E3.36248
G1 X38.34 Y46.69 E3.36977
G1 X38.28 Y46.69 E3.37109
G1 X37.97 Y46.69 E3.37840
G1 X37.91 Y46.69 E3.37972
G1 X37.60 Y46.69 E3.38703
G1 X37.55 Y46.69 E3.38835
G1 X37.18 Y46.69 E3.39698
G1 X36.58 Y46.69 E3.41109
G1 X36.49 Y46.68 E3.41325
G1 X35.91 Y46.65 E3.42681
G1 X35.52 Y46.58 E3.43627
G1 X35.03 Y46.43 E3.44837
G1 X34.73 Y46.31 E3.45585
G1 X34.31 Y46.08 E3.46700
G1 X34.04 Y45.89 E3.47483
G1 X33.65 Y45.56 E3.48678
G1 X33.41 Y45.31 E3.49488
G1 X33.11 Y44.93 E3.50641
G1 X32.95 Y44.66 E3.51381
G1 X32.73 Y44.23 E3.52504
G1 X32.62 Y43.93 E3.53271
G1 X32.50 Y43.48 E3.54359
G1 X32.45 Y43.18 E3.55066
G1 X32.42 Y42.80 E3.55962
G1 X32.41 Y42.67 E3.56268
G1 X32.41 Y41.49 E3.59042
G1 X32.41 Y41.48 E3.59080
G1 X32.41 Y41.42 E3.59221
G1 X32.41 Y41.08 E3.60007
G1 X32.41 Y41.07 E3.60037
G1 X32.41 Y41.01 E3.60178
G1 X32.41 Y40.68 E3.60966
G1 X32.41 Y40.66 E3.60997
G1 X32.41 Y40.60 E3.61138
G1 X32.41 Y40.27 E3.61926
G1 X32.41 Y40.26 E3.61956
G1 X32.41 Y40.19 E3.62097
G1 X32.41 Y39.86 E3.62880
G1 X32.41 Y39.85 E3.62911
G1 X32.41 Y39.79 E3.63052
G1 X32.41 Y39.45 E3.63840
G1 X32.41 Y39.44 E3.63870
G1 X32.41 Y39.38 E3.64012
G1 X32.41 Y39.05 E3.64799
G1 X32.41 Y39.03 E3.64830
G1 X32.41 Y38.97 E3.64971
G1 X32.41 Y38.64 E3.65756
G1 X32.41 Y38.63 E3.65787
G1 X32.41 Y38.57 E3.65928
G1 X32.41 Y38.16 E3.66890
G1 X32.41 Y37.26 E3.68997
G1 X32.42 Y37.08 E3.69428
G1 X32.47 Y36.67 E3.70384
G1 X32.53 Y36.37 E3.71111
G1 X32.67 Y35.92 E3.72210
G1 X32.79 Y35.63 E3.72958
G1 X33.02 Y35.22 E3.74073
G1 X33.21 Y34.94 E3.74856
G1 X33.54 Y34.55 E3.76051
G0 F3600 X36.33 Y37.22
G0 X36.42 Y37.34
;TYPE:WALL-INNER
G1 F1200 X36.44 Y37.32 E3.76118
G1 X36.52 Y37.31 E3.76290
G1 X37.56 Y37.31 E3.78735
G1 X37.57 Y37.31 E3.78778
G1 X37.92 Y37.31 E3.79596
G1 X37.94 Y37.31 E3.79641
G1 X38.29 Y37.31 E3.80459
G1 X38.31 Y37.31 E3.80504
G1 X38.65 Y37.31 E3.81320
G1 X38.67 Y37.31 E3.81364
G1 X39.02 Y37.31 E3.82171
G1 X39.58 Y37.31 E3.83490
G1 X39.69 Y37.31 E3.83751
G1 X39.94 Y37.35 E3.84343
G1 X40.06 Y37.35 E3.84639
G1 X40.30 Y37.31 E3.85205
G1 X40.44 Y37.31 E3.85527
G1 X40.51 Y37.31 E3.85690
G1 X42.82 Y37.31 E3.91126
G1 X42.94 Y37.31 E3.91420
G1 X43.19 Y37.31 E3.91998
G1 X43.25 Y37.31 E3.92142
G1 X43.37 Y37.31 E3.92412
G1 X43.51 Y37.31 E3.92755
G1 X43.56 Y37.32 E3.92877
G1 X43.58 Y37.34 E3.92944
G1 X43.59 Y37.41 E3.93109
G1 X43.58 Y37.56 E3.93454
G1 X43.59 Y37.62 E3.93605
G1 X43.58 Y41.84 E4.03511
G1 X43.59 Y41.97 E4.03826
G1 X43.58 Y42.25 E4.04480
G1 X43.59 Y42.31 E4.04614
G1 X43.58 Y42.45 E4.04946
G1 X43.59 Y42.61 E4.05324
G1 X43.58 Y42.66 E4.05457
G1 X43.56 Y42.68 E4.05524
G1 X43.49 Y42.69 E4.05684
G1 X43.36 Y42.69 E4.05990
G1 X43.29 Y42.69 E4.06150
G1 X40.98 Y42.69 E4.11589
G1 X40.85 Y42.69 E4.11880
G1 X40.61 Y42.69 E4.12461
G1 X40.55 Y42.69 E4.12602
G1 X40.43 Y42.69 E4.12875
G1 X40.29 Y42.69 E4.13202
G1 X40.03 Y42.65 E4.13827
G1 X39.89 Y42.65 E4.14144
G1 X39.74 Y42.69 E4.14508
G1 X39.70 Y42.69 E4.14616
G1 X38.64 Y42.69 E4.17094
G1 X38.61 Y42.69 E4.17165
G1 X38.28 Y42.69 E4.17953
G1 X38.25 Y42.69 E4.18026
G1 X37.91 Y42.69 E4.18816
G1 X37.88 Y42.69 E4.18889
G1 X37.54 Y42.69 E4.19679
G1 X37.51 Y42.69 E4.19752
G1 X37.18 Y42.69 E4.20528
G1 X36.64 Y42.69 E4.21802
G1 X36.43 Y42.67 E4.22307
G1 X36.42 Y42.66 E4.22348
G1 X36.41 Y42.58 E4.22525
G1 X36.41 Y41.41 E4.25290
G1 X36.41 Y41.37 E4.25372
G1 X36.41 Y41.00 E4.26247
G1 X36.41 Y40.96 E4.26329
G1 X36.41 Y40.59 E4.27206
G1 X36.41 Y40.56 E4.27289
G1 X36.41 Y40.18 E4.28166
G1 X36.41 Y40.15 E4.28248
G1 X36.41 Y39.78 E4.29120
G1 X36.41 Y39.74 E4.29203
G1 X36.41 Y39.37 E4.30080
G1 X36.41 Y39.33 E4.30162
G1 X36.41 Y38.96 E4.31039
G1 X36.41 Y38.93 E4.31121
G1 X36.41 Y38.55 E4.31996
G1 X36.41 Y38.52 E4.32078
G1 X36.41 Y38.17 E4.32911
G1 X36.41 Y37.39 E4.34735
G1 X36.42 Y37.34 E4.34861
G0 F3600 X35.96 Y37.14
;TYPE:WALL-OUTER
G1 F1200 X36.01 Y37.05 E4.35096
G1 X36.08 Y36.97 E4.35361
G1 X36.17 Y36.90 E4.35621
G1 X36.27 Y36.85 E4.35885
G1 X36.36 Y36.82 E4.36114
G1 X36.49 Y36.81 E4.36416
G1 X37.56 Y36.81 E4.38927
G1 X37.58 Y36.81 E4.38993
G1 X37.92 Y36.81 E4.39790
G1 X37.95 Y36.81 E4.39856
G1 X38.29 Y36.81 E4.40653
G1 X38.32 Y36.81 E4.40719
G1 X38.66 Y36.81 E4.41514
G1 X38.69 Y36.81 E4.41580
G1 X39.02 Y36.81 E4.42358
G1 X39.58 Y36.81 E4.43684
G1 X39.73 Y36.81 E4.44041
G1 X39.97 Y36.85 E4.44610
G1 X40.01 Y36.85 E4.44708
G1 X40.18 Y36.82 E4.45112
G1 X40.30 Y36.81 E4.45386
G1 X40.44 Y36.81 E4.45708
G1 X40.50 Y36.81 E4.45861
G1 X42.82 Y36.81 E4.51309
G1 X42.94 Y36.81 E4.51605
G1 X43.19 Y36.81 E4.52174
G1 X43.25 Y36.81 E4.52322
G1 X43.37 Y36.81 E4.52600
G1 X43.54 Y36.81 E4.53006
G1 X43.65 Y36.83 E4.53281
G1 X43.76 Y36.86 E4.53542
G1 X43.85 Y36.91 E4.53776
G1 X43.94 Y36.98 E4.54042
G1 X44.00 Y37.07 E4.54302
G1 X44.05 Y37.17 E4.54566
G1 X44.08 Y37.26 E4.54794
G1 X44.09 Y37.39 E4.55103
